icons/hand-coin-fill.svg

<svg viewBox="0 0 24 24" fill="currentColor" xmlns="http://www.w3.org/2000/svg"><path d="M9.3349 11.5023L11.5049 11.5028C13.9902 11.5028 16.0049 13.5175 16.0049 16.0028H9.00388L9.00488 17.0028L17.0049 17.002V16.0028C17.0049 14.9204 16.6867 13.8997 16.1188 13.002L19.0049 13.0028C20.9972 13.0028 22.7173 14.1681 23.521 15.8542C21.1562 18.9748 17.3268 21.0028 13.0049 21.0028C10.2436 21.0028 7.90445 20.4122 6.00456 19.378L6.00592 10.0738C7.25147 10.2522 8.39122 10.7585 9.3349 11.5023ZM5.00488 19.0028C5.00488 19.5551 4.55717 20.0028 4.00488 20.0028H2.00488C1.4526 20.0028 1.00488 19.5551 1.00488 19.0028V10.0028C1.00488 9.45052 1.4526 9.00281 2.00488 9.00281H4.00488C4.55717 9.00281 5.00488 9.45052 5.00488 10.0028V19.0028ZM18.0049 5.00281C19.6617 5.00281 21.0049 6.34595 21.0049 8.00281C21.0049 9.65966 19.6617 11.0028 18.0049 11.0028C16.348 11.0028 15.0049 9.65966 15.0049 8.00281C15.0049 6.34595 16.348 5.00281 18.0049 5.00281ZM11.0049 2.00281C12.6617 2.00281 14.0049 3.34595 14.0049 5.00281C14.0049 6.65966 12.6617 8.00281 11.0049 8.00281C9.34803 8.00281 8.00488 6.65966 8.00488 5.00281C8.00488 3.34595 9.34803 2.00281 11.0049 2.00281Z"/></svg>

<svg xmlns="http://www.w3.org/2000/svg" viewBox="0 0 24 24">
    <g>
        <path fill="none" d="M0 0h24v24H0z"/>
        <path fill-rule="nonzero" d="M9.33 11.5h2.17A4.5 4.5 0 0 1 16 16H8.999L9 17h8v-1a5.578 5.578 0 0 0-.886-3H19a5 5 0 0 1 4.516 2.851C21.151 18.972 17.322 21 13 21c-2.761 0-5.1-.59-7-1.625L6 10.071A6.967 6.967 0 0 1 9.33 11.5zM5 19a1 1 0 0 1-1 1H2a1 1 0 0 1-1-1v-9a1 1 0 0 1 1-1h2a1 1 0 0 1 1 1v9zM18 5a3 3 0 1 1 0 6 3 3 0 0 1 0-6zm-7-3a3 3 0 1 1 0 6 3 3 0 0 1 0-6z"/>
    </g>
</svg>
